public/images/icons/re-icons/re-warning.svg

<svg width="19" height="16" viewBox="0 0 19 16" fill="none" xmlns="http://www.w3.org/2000/svg">
<path d="M8.72169 0.990234C9.10659 0.323567 10.0688 0.323568 10.4537 0.990235L18.248 14.4902C18.6329 15.1569 18.1517 15.9902 17.3819 15.9902H1.79348C1.02368 15.9902 0.542559 15.1569 0.927459 14.4902L8.72169 0.990234Z" fill="#FFD633"/>
<path d="M8.58789 11.4902V5.49023H10.5879V11.4902H8.58789Z" fill="white"/>
<path d="M8.58789 12.4902V14.4902H10.5879V12.4902H8.58789Z" fill="white"/>
</svg>

<svg fill="none" viewBox="0 0 19 16"><path fill="#FFD633" d="M8.722.99a1 1 0 011.732 0l7.794 13.5a1 1 0 01-.866 1.5H1.793a1 1 0 01-.866-1.5L8.722.99z"/><path fill="#fff" d="M8.588 11.49v-6h2v6h-2zm0 1v2h2v-2h-2z"/></svg>
